documentation/public/assets/images/number-input.svg

<svg width="144" height="40" viewBox="0 0 144 40" fill="none" xmlns="http://www.w3.org/2000/svg">
<path d="M40.5 0.5H103.5V39.5H40.5V0.5Z" fill="white"/>
<path d="M61 26.1591C60.1439 26.1591 59.4148 25.9261 58.8125 25.4602C58.2102 24.9905 57.75 24.3106 57.4318 23.4205C57.1136 22.5265 56.9545 21.447 56.9545 20.1818C56.9545 18.9242 57.1136 17.8504 57.4318 16.9602C57.7538 16.0663 58.2159 15.3845 58.8182 14.9148C59.4242 14.4413 60.1515 14.2045 61 14.2045C61.8485 14.2045 62.5739 14.4413 63.1761 14.9148C63.7822 15.3845 64.2443 16.0663 64.5625 16.9602C64.8845 17.8504 65.0455 18.9242 65.0455 20.1818C65.0455 21.447 64.8864 22.5265 64.5682 23.4205C64.25 24.3106 63.7898 24.9905 63.1875 25.4602C62.5852 25.9261 61.8561 26.1591 61 26.1591ZM61 24.9091C61.8485 24.9091 62.5076 24.5 62.9773 23.6818C63.447 22.8636 63.6818 21.697 63.6818 20.1818C63.6818 19.1742 63.5739 18.3163 63.358 17.608C63.1458 16.8996 62.839 16.3598 62.4375 15.9886C62.0398 15.6174 61.5606 15.4318 61 15.4318C60.1591 15.4318 59.5019 15.8466 59.0284 16.6761C58.5549 17.5019 58.3182 18.6705 58.3182 20.1818C58.3182 21.1894 58.4242 22.0455 58.6364 22.75C58.8485 23.4545 59.1534 23.9905 59.5511 24.358C59.9527 24.7254 60.4356 24.9091 61 24.9091Z" fill="#757575"/>
<path d="M40.5 0.5H103.5V39.5H40.5V0.5Z" stroke="#545454"/>
<mask id="path-3-inside-1_821_53993" fill="white">
<path d="M0 4C0 1.79086 1.79086 0 4 0H40V40H4C1.79086 40 0 38.2091 0 36V4Z"/>
</mask>
<path d="M0 4C0 1.79086 1.79086 0 4 0H40V40H4C1.79086 40 0 38.2091 0 36V4Z" fill="white"/>
<path d="M27.9991 20.3801H11.9991C11.7916 20.3801 11.6191 20.2103 11.6191 20.0001C11.6191 19.7863 11.7853 19.6201 11.9991 19.6201H27.9991C28.2067 19.6201 28.3791 19.7899 28.3791 20.0001C28.3791 20.214 28.213 20.3801 27.9991 20.3801Z" fill="#0F67F5" stroke="#757575"/>
<path d="M-1 4C-1 1.23858 1.23858 -1 4 -1H40V1H4C2.34315 1 1 2.34315 1 4H-1ZM40 41H4C1.23858 41 -1 38.7614 -1 36H1C1 37.6569 2.34315 39 4 39H40V41ZM4 41C1.23858 41 -1 38.7614 -1 36V4C-1 1.23858 1.23858 -1 4 -1V1C2.34315 1 1 2.34315 1 4V36C1 37.6569 2.34315 39 4 39V41ZM40 0V40V0Z" fill="#545454" mask="url(#path-3-inside-1_821_53993)"/>
<mask id="path-6-inside-2_821_53993" fill="white">
<path d="M104 0H140C142.209 0 144 1.79086 144 4V36C144 38.2091 142.209 40 140 40H104V0Z"/>
</mask>
<path d="M104 0H140C142.209 0 144 1.79086 144 4V36C144 38.2091 142.209 40 140 40H104V0Z" fill="white"/>
<path d="M123.619 20.8801V20.3801H123.119H115.999C115.792 20.3801 115.619 20.2103 115.619 20.0001C115.619 19.7863 115.785 19.6201 115.999 19.6201H123.119H123.619V19.1201V12.0001C123.619 11.7926 123.789 11.6201 123.999 11.6201C124.213 11.6201 124.379 11.7863 124.379 12.0001V19.1201V19.6201H124.879H131.999C132.207 19.6201 132.379 19.7899 132.379 20.0001C132.379 20.214 132.213 20.3801 131.999 20.3801H124.879H124.379V20.8801V28.0001C124.379 28.2077 124.209 28.3801 123.999 28.3801C123.792 28.3801 123.619 28.2103 123.619 28.0001V20.8801Z" fill="#0F67F5" stroke="#757575"/>
<path d="M104 -1H140C142.761 -1 145 1.23858 145 4H143C143 2.34315 141.657 1 140 1H104V-1ZM145 36C145 38.7614 142.761 41 140 41H104V39H140C141.657 39 143 37.6569 143 36H145ZM104 40V0V40ZM140 -1C142.761 -1 145 1.23858 145 4V36C145 38.7614 142.761 41 140 41V39C141.657 39 143 37.6569 143 36V4C143 2.34315 141.657 1 140 1V-1Z" fill="#545454" mask="url(#path-6-inside-2_821_53993)"/>
</svg>

<svg width="144" height="40" fill="none" xmlns="http://www.w3.org/2000/svg"><path d="M40.5.5h63v39h-63V.5Z" fill="#fff"/><path d="M61 26.16c-.86 0-1.59-.23-2.19-.7a4.37 4.37 0 0 1-1.38-2.04 9.7 9.7 0 0 1-.48-3.24c0-1.26.16-2.33.48-3.22a4.4 4.4 0 0 1 1.39-2.05c.6-.47 1.33-.7 2.18-.7.85 0 1.57.23 2.18.7.6.47 1.06 1.16 1.38 2.05.32.89.49 1.96.49 3.22a9.7 9.7 0 0 1-.48 3.24 4.37 4.37 0 0 1-1.38 2.04c-.6.47-1.33.7-2.19.7Zm0-1.25c.85 0 1.5-.41 1.98-1.23.47-.82.7-1.98.7-3.5 0-1-.1-1.86-.32-2.57a3.53 3.53 0 0 0-.92-1.62c-.4-.37-.88-.56-1.44-.56-.84 0-1.5.42-1.97 1.25-.48.82-.71 2-.71 3.5a9 9 0 0 0 .32 2.57c.2.7.51 1.24.91 1.6.4.38.89.56 1.45.56Z" fill="#757575"/><path d="M40.5.5h63v39h-63V.5Z" stroke="#545454"/><mask id="a" fill="#fff"><path d="M0 4a4 4 0 0 1 4-4h36v40H4a4 4 0 0 1-4-4V4Z"/></mask><path d="M0 4a4 4 0 0 1 4-4h36v40H4a4 4 0 0 1-4-4V4Z" fill="#fff"/><path d="M28 20.38H12a.38.38 0 0 1-.38-.38c0-.21.17-.38.38-.38h16c.2 0 .38.17.38.38s-.17.38-.38.38Z" fill="#0F67F5" stroke="#757575"/><path d="M-1 4a5 5 0 0 1 5-5h36v2H4a3 3 0 0 0-3 3h-2Zm41 37H4a5 5 0 0 1-5-5h2a3 3 0 0 0 3 3h36v2ZM4 41a5 5 0 0 1-5-5V4a5 5 0 0 1 5-5v2a3 3 0 0 0-3 3v32a3 3 0 0 0 3 3v2ZM40 0v40V0Z" fill="#545454" mask="url(#a)"/><mask id="b" fill="#fff"><path d="M104 0h36a4 4 0 0 1 4 4v32a4 4 0 0 1-4 4h-36V0Z"/></mask><path d="M104 0h36a4 4 0 0 1 4 4v32a4 4 0 0 1-4 4h-36V0Z" fill="#fff"/><path d="M123.62 20.88v-.5H116a.38.38 0 0 1-.38-.38c0-.21.16-.38.38-.38h7.62V12c0-.2.17-.38.38-.38s.38.17.38.38v7.62H132c.2 0 .38.17.38.38s-.17.38-.38.38h-7.62V28c0 .2-.17.38-.38.38a.38.38 0 0 1-.38-.38v-7.12Z" fill="#0F67F5" stroke="#757575"/><path d="M104-1h36a5 5 0 0 1 5 5h-2a3 3 0 0 0-3-3h-36v-2Zm41 37a5 5 0 0 1-5 5h-36v-2h36a3 3 0 0 0 3-3h2Zm-41 4V0v40Zm36-41a5 5 0 0 1 5 5v32a5 5 0 0 1-5 5v-2a3 3 0 0 0 3-3V4a3 3 0 0 0-3-3v-2Z" fill="#545454" mask="url(#b)"/></svg>
